X:1
T:Title
%%score { 1 | ( 2 3 ) }
L:1/8
Q:1/4=92
M:4/4
K:Eb
V:1 treble nm="Grand Piano"
V:2 bass 
V:3 bass 
V:1
 G2 G2 G>F E>G | [GB]>[GB] [DFB]>[DAB] [EGB]4 | c2 e2 B2 G2 | A2 G>[FA] [EG]2 F2 | G2 G2 G>F E2 | %5
w: Charles~H.~Gabriel * * * * *|||||
 [GB]2 [GB]2 [GB]>[FA] G2 | c2 e2 B3 c |[M:7/8] G2 [DF]>[DF] E3 |[M:1/8] [Ge] | %9
w: ||||
[M:4/4] [Ae]2 [Ad]2 d<d A>A | [Ad]2 [DAc]2 [DAc]3 [FAe] | [FAe]2 [FAd]2 [FAd]<[FAd] [DFA]>[DFA] | %12
w: |||
 [Ac]2 [GB]2 [GB]3 [EB] | [=E_d]2 [Ec]2 [Gc]<[Gc] G>G | B2 A2 =A2 B2 | c2 e2 B3 c | %16
w: ||||
 G2 [DF]>[DF] E4 |] %17
w: |
V:2
 [E,B,E]2 [E,B,E]2 [E,B,E]>[E,A,B,] [E,G,B,]>[E,B,E] | [E,E]>[E,E] B,,>B,, E,4 | %2
 [A,EA]2 [A,CA]2[K:bass] [G,E]2 [=E,B,_D]2 | [F,B,D]2 [E,B,E]>[E,B,] z2 D2 | %4
 [E,B,E]2 [E,B,E]2 [E,B,E]>[E,A,B,] [E,G,B,]2 | [E,E]2 [E,E]2 [E,E]>[E,B,] [E,B,E]2 | %6
 [A,E]2 [A,CE]2 [G,E]3 [A,E] |[M:7/8] [B,E]2 [B,,A,]>[B,,A,] [E,G,]3 |[M:1/8] [E,B,] | %9
[M:4/4] [F,B,]2 [F,B,]2[K:treble] [B,A]<[B,A] [B,DF]>[B,DF] | [B,,B,]2 B,,2 B,,3 B,, | %11
 B,,2 B,,2 B,,<B,, B,,>B,, | [E,E]2 [E,E]2 [E,E]3 [E,G,] | %13
 [C,G,]2 [C,G,]2 [=E,C]<[E,C] [E,C]>[E,C] | [F,CG]2 [F,CF]2 E2- [=G,B,E]2 | %15
 [A,E]2 [A,CE]2 [G,E]3 [A,E] | [B,E]2 [B,,A,]>[B,,A,] [E,G,]4 |] %17
V:3
 x8 | x8 | x4[K:bass] x4 | z4 [B,,B,]4 | x8 | x8 | x8 |[M:7/8] x7 |[M:1/8] x | %9
[M:4/4] x4[K:treble] x4 | x8 | x8 | x8 | x8 | z4 [_G,C]2 z2 | x8 | x8 |] %17

